X:1     %Music
T:King Arthur's Servants
T:In Good King Arthur's Time
B:Singing Together, Spring 1967, BBC Publications
F:http://www.folkinfo.org/songs
M:6/8     %Meter
L:1/8     %
K:Bb
F |B2 B c2 A |B-B3z F |B2 B c2 A | B3-B z 
w:In good King Ar-thur's days,_ He was a mer-ry king,_
F |B2 B d2 B |G2 G c2 B |A2 F G2 A | B3-B z 
w: He turned three ser-vants out of doors, Be-cause they would-n't sing._
 F |B2 B c2 A |B-B3z F |B2 B d2 B | G2 G c2
w:Be-cause they would-n't sing,_ He turned three ser-vants out of doors, 
 B |A2 F G2 A |B3-Bz2 |]
w:Be-cause they would-n't sing._ 